X:5079
T:The Squall
M:4/4
R:Reel
L:1/8
Q:180
C:Aidan Crossey
K:A
|:A3B cBAc|ecfc ecBc|A3B cBAc|B2c2 dcBc|
A3B cBAc|ecfc ecBc|dcBc ecfc|BAGB AEFG:||
|:A3B cBAc|BAGA BcdB|A3B cBAc|BABc dBGB|
A3B cBAc|BAGA BcdB|cBAc BAGB|AGFG AEFG:||
